X: 592
T:Drunken Gauger, The
R:Set Dance
S:from Mike Rafferty
Z:Tom Madden
M:12/8
L:1/8
Q:120
N:Posted to the woodenflute mailing list November 2002
K:G
D|:GAB c2A BAG AGE|GBd g2e dBe dBG|c2A (3Bcd B AGA BGE|
DEG AGA BGF G2D::GBd g2e dBe dBG|Adf a2a agb age|
dBd g2e dBe dBG|c2A (3Bcd B AGA BGE|DEG AGA BGF G3:|

